X:539
M:C
L:1/8
K:F
f>ga>c A>GF>A|G<G A>F D2D||
e|~f>c d/c/B/A/ f<c c>a|~f<c c>A d2 d>e|1 f>ga>c A>GF>A|G>GA>F D2D:|2
f>a g<a A>G F<A|G<G A>F D2D||

